X:1
T:Title
%%score { ( 1 4 5 ) | ( 2 3 ) }
L:1/8
Q:1/4=90
M:6/8
K:Eb
V:1 treble nm="Grand Piano"
V:4 treble 
V:5 treble 
V:2 bass 
V:3 bass 
V:1
 GGG G_G=G | B3 [DF]3 | [DF][EG][FA] [DAc][DGB][B,FA] | G6 | ccc edc | B3 G3 | FFF =ABc | B3 A3 | %8
w: Powell~G.~Fithian * * * * *||||||||
 GGG G_G=G | B3 [DF]3 | AAA G2 C | F3 A3 | .c6 | .e6 | c3 [DB]3 | [G,E]6 | [B,EGB]3 [CEGc]3 | %17
w: |||||||||
 [B,EGB]3 .[G,B,EG]3 | .E2 E [CEA]2 E | [B,EG]6 | [B,EGB]3 [CEGc]3 | [B,EGB]3 .[G,B,EG]3 | %22
w: |||||
 E2- [Ec] e2 d | B6 | [B,EGB]3 [CEGc]3 | [B,EGB]3 .[G,B,EG]3 | .[B,=EG]2 [B,EG] [Ec]2 [CEG] | %27
w: |||||
 [CFA]6 | .c6 | .e6 | c3 [DB]3 | E6 |] %32
w: |||||
V:2
 [E,B,E][E,B,E][E,B,E] [E,B,E][E,=A,E][E,B,E] | [F,A,D]3 [B,,B,]3 | %2
 [B,,B,][B,,B,][B,,B,] B,,B,,B,, | [E,B,E]6 | [A,E][A,E][A,E] [A,CE][A,B,E][A,E] | %5
 [E,G,E]3 [E,B,E]3 | [F,D][F,D][F,D] CD[F,E] | F,3 z3 | %8
 [E,B,E][E,B,E][E,B,E] [E,B,E][E,=A,E][E,B,E] | [F,A,D]3 [B,,B,]3 | %10
 [F,C][F,C][F,C] [C,=E,C]2 [E,B,] | [A,C]3[K:treble] [CF]3 | [=A,E_G][A,E][A,E] [A,E]2 [A,EG] | %13
 [B,EG][B,E][B,E] EE[B,EG] | [B,DA]3[K:bass] [B,,A,]3 | E,B,,G,, .E,,3 | E,,2 B,, [E,G,]2 B,, | %17
 E,,2 B,, E,2 B,, | z DB,, z2 =B, | E,,2 B,, E,2 B,, | E,,2 B,, [E,G,]2 B,, | E,,2 B,, E,2 B,, | %22
 z[K:treble] =AF, [=A,G]2[K:bass] [F,F] | z F,G, .A,3 | E,,2 B,, [E,G,]2 B,, | E,,2 B,, E,2 B,, | %26
 z _GC, [C,G,]2 C, | F,C,A,, .F,,3 | [=A,E_G][A,E][A,E] [A,E]2 [A,EG] | [B,EG][B,E][B,E] EE[B,EG] | %30
 [B,DA]3[K:bass] [B,,A,]3 | [E,G,][E,G,][E,A,] .[E,G,]3 |] %32
V:3
 x6 | x6 | x6 | x6 | x6 | x6 | z3 .F,3 | B,,3- [B,,B,]3 | x6 | x6 | x6 | F,6[K:treble] | x6 | %13
 z3 .B,3 | x3[K:bass] x3 | x6 | x6 | x6 | .E,,3 E,3 | x6 | x6 | x6 | .F,,3[K:treble] z3[K:bass] | %23
 B,,6 | x6 | x6 | .C,,3 z3 | x6 | x6 | z3 .B,3 | x3[K:bass] x3 | x6 |] %32
V:4
 x6 | x6 | x6 | x6 | x6 | x6 | x6 | D6 | x6 | x6 | x6 | x6 | z _GG z de | z GG GGB | x6 | z3 .E,3 | %16
 x6 | x6 | [G,B,]3 z3 | x6 | x6 | x6 | .F3 z3 | z DE .[DF]3 | x6 | x6 | x6 | x6 | z _GG z de | %29
 z GG GGB | x6 | z B,C .B,3 |] %32
V:5
 x6 | x6 | x6 | x6 | x6 | x6 | x6 | x6 | x6 | x6 | x6 | x6 | z3 ._G3 | x6 | x6 | x6 | x6 | x6 | %18
 x6 | x6 | x6 | x6 | x6 | x6 | x6 | x6 | x6 | x6 | z3 ._G3 | x6 | x6 | x6 |] %32

